copytrade/img/icomoon/notification.svg

<svg width="16" height="18" viewBox="0 0 16 18" fill="none" xmlns="http://www.w3.org/2000/svg">
<path d="M3.74822 1.90055C4.73792 0.772215 6.19172 0.124786 8 0.124786C9.80828 0.124786 11.2621 0.772215 12.2518 1.90055C13.2249 3.01 13.6667 4.48866 13.6667 6.02479V7.54145C13.6667 7.71645 13.7451 7.94699 13.9871 8.26808C14.2203 8.57749 14.5244 8.86899 14.8704 9.20073L14.8704 9.20075L14.9258 9.25382C15.5453 9.8482 16 10.7111 16 11.7415C16 13.1493 14.9013 14.3748 13.4444 14.3748H2.55556C1.09874 14.3748 0 13.1493 0 11.7415C0 10.7111 0.454669 9.8482 1.07421 9.25382L1.12956 9.20075C1.47561 8.869 1.77968 8.57749 2.01288 8.26808C2.25488 7.947 2.33333 7.71645 2.33333 7.54145V6.02479C2.33333 4.48866 2.77508 3.01 3.74822 1.90055Z" fill="#646E82"/>
<path fill-rule="evenodd" clip-rule="evenodd" d="M5.69301 15.1693C6.1517 14.8617 6.77291 14.9841 7.08051 15.4428C7.15449 15.5531 7.27243 15.6615 7.43616 15.7431C7.60013 15.8248 7.79506 15.8717 7.99998 15.8717C8.20491 15.8717 8.39984 15.8248 8.5638 15.7431C8.72754 15.6615 8.84547 15.5531 8.91945 15.4428C9.22705 14.9841 9.84826 14.8617 10.307 15.1693C10.7656 15.4769 10.8881 16.0981 10.5805 16.5568C10.2988 16.9768 9.90621 17.3087 9.45569 17.5332C9.00541 17.7575 8.50392 17.8717 7.99998 17.8717C7.49605 17.8717 6.99456 17.7575 6.54427 17.5332C6.09375 17.3087 5.70116 16.9768 5.41945 16.5568C5.11184 16.0981 5.23432 15.4769 5.69301 15.1693Z" fill="#646E82"/>
</svg>

<svg width="16" height="18" fill="none" xmlns="http://www.w3.org/2000/svg"><path d="M3.748 1.9C4.738.773 6.192.126 8 .126c1.808 0 3.262.647 4.252 1.776.973 1.109 1.415 2.588 1.415 4.124V7.54c0 .175.078.406.32.727.233.31.537.601.883.933l.056.053A3.434 3.434 0 0116 11.742c0 1.407-1.099 2.633-2.556 2.633H2.556C1.099 14.375 0 13.149 0 11.742c0-1.03.455-1.894 1.074-2.488L1.13 9.2c.346-.332.65-.624.883-.933.242-.321.32-.552.32-.727V6.025c0-1.536.442-3.015 1.415-4.124z" fill="#646E82"/><path fill-rule="evenodd" clip-rule="evenodd" d="M5.693 15.17a1 1 0 011.388.273.9.9 0 00.355.3c.164.082.36.129.564.129.205 0 .4-.047.564-.129a.914.914 0 00.355-.3 1 1 0 011.662 1.114c-.282.42-.675.752-1.125.976-.45.224-.952.339-1.456.339a3.272 3.272 0 01-1.456-.339 2.912 2.912 0 01-1.125-.976 1 1 0 01.274-1.388z" fill="#646E82"/></svg>
